X:186
T:Duke of Wellington,2voices. JGi.186
M:6/8
L:1/8
Q:1/4=110
S:Joshua Gibbons MS,1823,Tealby,Lincs.
N:Second part in bass clef in MS
R:quick step
O:Tealby,Lincolnshire
Z:VMP/R.Greig, 2009
K:Bb
[V:1]|:f/e/|d2B {c}BAB|c2GG2A|B2cd2e|f2gf2e|
[V:2]|:z|B,,3D,3|E,3C,3|D,2C,B,,2C,|D,2E,D,2C,|
[V:1]d2B {c}BAB|c2GG2A|B2cd2e|c2AB2:|
[V:2]B,,3D,3|E,3C,3|D,2C,B,,2E,|F,3B,,2:|
[V:1]|:f|g2f efg|f2ed2f|g2f efg|f2ed2f|
[V:2]|:z|B,,2B,B,,2B,|B,,2B,B,,2B,|B,,2B,B,,2B,|B,,2B,B,,2B,|
[V:1]gfe fed|edc dcB|ABc dcB|ABc”DC” Ffe:|
[V:2]E,2B,D,2B,|C,2A,D,2B,|F,3B,,2D,|F,3F,,3:|

